X:1
T:Ain't Nobody's Business
C:Andy De Jarlis
M:2/4
L:1/8
Z:abc by Bruce Osborne - bosborne@kos.net
K:D
fg|a3/2a/ ab|f2 d2|GG/G/ GB|e2 d2|!
A3/2A/ ce|a (3a/b/a/ ea|f4 -|f2 fg|!
a3/2a/ ab|f2 d2|GG/G/ GB|e2 d2|!
A3/2A/ ce|a (3g/a/g/ ef|d4 -|d2:|!
|:z2|c3/2B/ cd|ec (3B/c/B/ A|d3/2c/ de|f3 f|!
e2 e3/2f/|eB cd|e4 -|ec B^A|!
A3/2A/ de|f d2 d|B3/2B/ ef|g3 g|!
A3/2A/ cd|ef ge|d4 -|d2:|!
